;Code generated by LightPainter
G21        ;metric values
G90        ;absolute positioning
M107       ;start with the fan off
G28 Y0     ;move Y to min endstops
G28 X0     ;move X to min endstops

;Turn on magnets
M42 P4 S255
M42 P5 S255


;Layer count: 8
;LAYER:0
M107
G0 F9000 X16.637 Y19.661 Z0.300
;TYPE:SKIRT
G1 F6000 X18.317 Y18.203 E0.05230
G1 X20.483 Y17.015 E0.11039
G1 X23.175 Y16.097 E0.17727
G1 X26.513 Y15.443 E0.25725
G1 X30.652 Y15.076 E0.35495
G1 X31.998 Y15.069 E0.38660
G1 X35.747 Y15.047 E0.47475
G1 X41.942 Y15.420 E0.62068
G1 X49.345 Y16.264 E0.79588
G1 X57.995 Y17.639 E1.00182
G1 X60.489 Y18.131 E1.06159
G1 X67.844 Y19.584 E1.23787
G1 X78.707 Y22.101 E1.50006
G1 X90.262 Y25.138 E1.78099
G1 X102.065 Y28.588 E2.07012
G1 X114.838 Y32.714 E2.38574
G1 X126.640 Y36.923 E2.68036
G1 X137.015 Y41.003 E2.94250
G1 X145.758 Y44.817 E3.16678
G1 X153.163 Y48.435 E3.36057
G1 X154.751 Y49.314 E3.40324
G1 X159.378 Y51.878 E3.52763
G1 X164.563 Y55.169 E3.67203
G1 X168.858 Y58.338 E3.79753
G1 X169.786 Y59.146 E3.82646
G1 X172.386 Y61.413 E3.90757
G1 X175.247 Y64.424 E4.00523
G1 X175.865 Y65.235 E4.02921
G1 X177.520 Y67.407 E4.09342
G1 X178.001 Y68.231 E4.11585
G1 X179.262 Y70.386 E4.17456
G1 X180.150 Y72.527 E4.22906
G1 X180.507 Y73.385 E4.25091
G1 X180.714 Y74.184 E4.27032
G1 X181.226 Y76.148 E4.31804
G1 X181.321 Y76.959 E4.33724
G1 X181.555 Y78.950 E4.38438
G1 X181.538 Y79.779 E4.40387
G1 X181.495 Y81.816 E4.45178
G1 X181.032 Y84.753 E4.52169
G1 X180.146 Y87.786 E4.59599
G1 X179.760 Y88.692 E4.61914
G1 X178.759 Y91.035 E4.67905
G1 X176.695 Y94.726 E4.77849
G1 X173.962 Y98.775 E4.89335
G1 X171.218 Y102.408 E5.00040
G1 X169.045 Y105.128 E5.08226
G1 X168.326 Y106.028 E5.10935
G1 X162.464 Y113.325 E5.32943
G1 X158.930 Y118.085 E5.46883
G1 X156.312 Y122.088 E5.58129
G1 X154.357 Y125.635 E5.67652
G1 X154.030 Y126.376 E5.69557
G1 X152.940 Y128.850 E5.75914
G1 X152.724 Y129.519 E5.77567
G1 X151.976 Y131.829 E5.83276
G1 X151.851 Y132.439 E5.84740
G1 X151.406 Y134.619 E5.89971
G1 X151.189 Y137.305 E5.96308
G1 X151.215 Y137.866 E5.97628
G1 X151.214 Y137.866 E5.97631
G1 X151.312 Y139.958 E6.02555
G1 X151.407 Y140.515 E6.03883
G1 X151.763 Y142.589 E6.08831
G1 X151.948 Y143.238 E6.10418
G1 X151.949 Y143.238 E6.10421
G1 X152.612 Y145.556 E6.16089
G1 X152.909 Y146.308 E6.17991
G1 X153.934 Y148.904 E6.24553
G1 X154.378 Y149.801 E6.26907
G1 X155.846 Y152.757 E6.34667
G1 X158.526 Y157.276 E6.47021
G1 X161.853 Y162.191 E6.60976
G1 X164.817 Y166.181 E6.72663
G1 X165.792 Y167.493 E6.76507
G1 X173.542 Y177.282 E7.05864
G1 X174.808 Y178.907 E7.10708
G1 X178.631 Y183.810 E7.25326
G1 X179.487 Y185.011 E7.28794
G1 X182.002 Y188.537 E7.38978
G1 X184.322 Y192.308 E7.49388
G1 X185.878 Y195.473 E7.57681
G1 X186.144 Y196.249 E7.59610
G1 X186.143 Y196.249 E7.59612
G1 X186.827 Y198.235 E7.64551
G1 X187.240 Y200.623 E7.70250
G1 X187.235 Y202.499 E7.74661
G1 X186.891 Y204.334 E7.79050
G1 X186.156 Y206.108 E7.83566
G1 X185.332 Y207.263 E7.86902
G1 X184.910 Y207.853 E7.88607
G1 X183.136 Y209.410 E7.94157
G1 X181.450 Y210.392 E7.98745
G1 X180.769 Y210.788 E8.00597
G1 X177.616 Y212.042 E8.08576
G1 X173.250 Y213.237 E8.19219
G1 X171.702 Y213.532 E8.22925
G1 X167.344 Y214.366 E8.33358
G1 X151.521 Y216.550 E8.70915
G1 X144.105 Y217.686 E8.88556
G1 X142.794 Y217.950 E8.91700
G1 X138.689 Y218.778 E9.01547
G1 X134.578 Y219.892 E9.11562
G1 X133.861 Y220.154 E9.13357
G1 X131.488 Y221.023 E9.19299
G1 X130.997 Y221.267 E9.20588
G1 X129.230 Y222.143 E9.25225
G1 X128.918 Y222.355 E9.26112
G1 X127.646 Y223.220 E9.29729
G1 X127.475 Y223.384 E9.30286
G1 X126.595 Y224.226 E9.33150
G1 X125.931 Y225.170 E9.35864
G1 X125.531 Y226.126 E9.38301
G1 X125.365 Y227.037 E9.40478
G1 X125.384 Y228.111 E9.43004
G1 X125.383 Y228.111 E9.43006
G1 X125.387 Y228.286 E9.43418
G1 X125.436 Y228.544 E9.44035
G1 X125.701 Y229.910 E9.47307
G1 X126.248 Y231.461 E9.51174
G1 X126.389 Y231.861 E9.52171
G1 X126.614 Y232.308 E9.53348
G1 X127.485 Y234.039 E9.57904
G1 X127.803 Y234.526 E9.59272
G1 X128.961 Y236.297 E9.64247
G1 X129.406 Y236.837 E9.65892
G1 X130.970 Y238.740 E9.71684
G1 X133.216 Y240.925 E9.79052
G1 X135.565 Y242.748 E9.86043
G1 X136.072 Y243.053 E9.87435
G1 X137.907 Y244.162 E9.92476
G1 X138.387 Y244.375 E9.93711
G1 X138.387 Y244.376 E9.93713
G1 X140.167 Y245.167 E9.98293
G1 X140.600 Y245.292 E9.99353
G1 X142.311 Y245.789 E10.03542
G1 X143.842 Y246.005 E10.07178
G1 X144.202 Y246.057 E10.08033
G1 X144.604 Y246.057 E10.08978
G1 X146.285 Y246.058 E10.12931
G1 X146.765 Y245.994 E10.14070
G1 X148.650 Y245.743 E10.18541
G1 X151.388 Y245.035 E10.25191
G1 X154.678 Y243.796 E10.33457
G1 X155.538 Y243.383 E10.35700
G1 X158.426 Y241.994 E10.43235
G1 X161.484 Y240.304 E10.51450
G1 X162.199 Y239.883 E10.53401
G1 X170.200 Y235.158 E10.75250
G1 X173.502 Y233.475 E10.83964
G1 X175.282 Y232.802 E10.88439
G1 X176.036 Y232.518 E10.90333
G1 X177.793 Y232.126 E10.94566
G1 X178.705 Y232.061 E10.96716
G1 X179.194 Y232.024 E10.97869
G1 X180.625 Y232.161 E11.01249
G1 X181.508 Y232.430 E11.03420
G1 X182.043 Y232.594 E11.04735
G1 X183.452 Y233.398 E11.08550
G1 X184.839 Y234.708 E11.13036
G1 X186.068 Y236.618 E11.18376
G1 X186.981 Y239.017 E11.24412
G1 X187.586 Y241.954 E11.31463
G1 X187.863 Y245.501 E11.39828
G1 X187.772 Y249.669 E11.49631
G1 X187.284 Y254.380 E11.60767
G1 X186.390 Y259.466 E11.72909
G1 X184.965 Y265.257 E11.86932
G1 X183.159 Y270.907 E12.00879
G1 X181.073 Y276.162 E12.14173
G1 X180.481 Y277.390 E12.17379
G1 X178.799 Y280.872 E12.26471
G1 X176.407 Y284.964 E12.37616
G1 X173.948 Y288.428 E12.47604
G1 X171.443 Y291.296 E12.56558
G1 X168.760 Y293.727 E12.65071
G1 X166.178 Y295.553 E12.72507
G1 X165.416 Y295.965 E12.74544
G1 X163.465 Y297.020 E12.79759
G1 X161.423 Y297.820 E12.84916
G1 X160.618 Y298.136 E12.86949
G1 X158.477 Y298.682 E12.92144
G1 X158.477 Y298.681 E12.92147
G1 X157.637 Y298.897 E12.94186
G1 X156.761 Y299.007 E12.96262
G1 X156.761 Y299.008 E12.96264
G1 X154.530 Y299.294 E13.01553
G1 X153.626 Y299.300 E13.03679
G1 X151.304 Y299.318 E13.09139
G1 X148.882 Y299.060 E13.14866
G1 X147.961 Y298.961 E13.17044
G1 X144.511 Y298.208 E13.25347
G1 X141.922 Y297.360 E13.31753
G1 X140.964 Y297.046 E13.34123
G1 X139.984 Y296.618 E13.36638
G1 X137.337 Y295.463 E13.43428
G1 X133.652 Y293.452 E13.53299
G1 X130.915 Y291.652 E13.61002
G1 X129.936 Y291.007 E13.63758
G1 X127.201 Y288.891 E13.71889
G1 X126.229 Y288.138 E13.74780
G1 X122.573 Y284.859 E13.86328
G1 X119.015 Y281.197 E13.98333
G1 X115.601 Y277.187 E14.10716
G1 X112.044 Y272.393 E14.24752
G1 X108.781 Y267.298 E14.38979
G1 X105.862 Y261.980 E14.53243
G1 X103.323 Y256.509 E14.67425
G1 X101.744 Y252.392 E14.77793
G1 X101.190 Y250.951 E14.81423
G1 X99.474 Y245.357 E14.95181
G1 X99.138 Y243.909 E14.98676
G1 X98.180 Y239.778 E15.08647
G1 X97.537 Y235.690 E15.18377
G1 X97.538 Y235.690 E15.18380
G1 X97.310 Y234.248 E15.21813
G1 X96.978 Y230.222 E15.31311
G1 X96.860 Y228.803 E15.34659
G1 X96.810 Y223.649 E15.46778
G1 X97.045 Y219.605 E15.56303
G1 X97.128 Y218.191 E15.59634
G1 X97.311 Y216.688 E15.63194
G1 X97.838 Y212.387 E15.73382
G1 X98.977 Y206.177 E15.88228
G1 X100.598 Y199.464 E16.04466
G1 X102.795 Y192.058 E16.22630
G1 X104.766 Y186.365 E16.36795
G1 X105.433 Y184.441 E16.41583
G1 X106.015 Y182.917 E16.45419
G1 X107.721 Y178.459 E16.56643
G1 X109.955 Y172.936 E16.70651
G1 X113.829 Y163.524 E16.94583
G1 X114.257 Y162.376 E16.97464
G1 X115.550 Y158.919 E17.06142
G1 X115.726 Y158.306 E17.07642
G1 X116.201 Y156.657 E17.11677
G1 X114.427 Y157.506 E17.16301
G1 X113.848 Y157.783 E17.17811
G1 X113.048 Y158.265 E17.20007
G1 X110.344 Y159.896 E17.27432
G1 X106.142 Y162.851 E17.39510
G1 X104.928 Y163.819 E17.43161
G1 X101.134 Y166.844 E17.54571
G1 X96.272 Y171.202 E17.69923
G1 X92.939 Y174.546 E17.81024
G1 X91.883 Y175.607 E17.84544
G1 X88.122 Y179.863 E17.97899
G1 X85.089 Y183.794 E18.09573
G1 X82.720 Y187.394 E18.19707
G1 X80.819 Y190.929 E18.29144
G1 X79.487 Y194.056 E18.37136
G1 X79.251 Y194.784 E18.38935
G1 X78.460 Y197.226 E18.44971
G1 X78.295 Y197.963 E18.46747
G1 X77.732 Y200.459 E18.52763
G1 X77.290 Y203.842 E18.60785
G1 X77.257 Y204.665 E18.62722
G1 X77.146 Y207.431 E18.69231
G1 X77.187 Y208.344 E18.71380
G1 X77.324 Y211.353 E18.78462
G1 X77.879 Y215.761 E18.88909
G1 X78.913 Y220.934 E19.01313
G1 X80.437 Y226.737 E19.15420
G1 X80.845 Y228.070 E19.18698
G1 X82.113 Y232.212 E19.28883
G1 X82.577 Y233.617 E19.32362
G1 X84.003 Y237.924 E19.43030
G1 X88.183 Y250.219 E19.73565
G1 X91.007 Y259.091 E19.95457
G1 X92.974 Y266.205 E20.12812
G1 X94.276 Y272.091 E20.26986
G1 X95.030 Y277.017 E20.38704
G1 X95.105 Y278.113 E20.41287
G1 X95.317 Y281.170 E20.48492
G1 X95.232 Y283.708 E20.54463
G1 X95.198 Y284.705 E20.56809
G1 X94.852 Y286.847 E20.61910
G1 X94.707 Y287.738 E20.64033
G1 X94.461 Y288.500 E20.65916
G1 X93.857 Y290.360 E20.70514
G1 X92.637 Y292.623 E20.76559
G1 X91.040 Y294.518 E20.82386
G1 X89.795 Y295.482 E20.86089
G1 X89.216 Y295.932 E20.87813
G1 X87.700 Y296.685 E20.91793
G1 X87.033 Y297.017 E20.93545
G1 X86.246 Y297.246 E20.95472
G1 X84.489 Y297.758 E20.99775
G1 X83.624 Y297.871 E21.01826
G1 X81.575 Y298.141 E21.06686
G1 X79.170 Y298.143 E21.12341
G1 X78.260 Y298.144 E21.14480
G1 X77.234 Y298.033 E21.16907
G1 X74.537 Y297.737 E21.23286
G1 X73.434 Y297.510 E21.25934
G1 X70.443 Y296.893 E21.33115
G1 X66.059 Y295.606 E21.43858
G1 X61.511 Y293.893 E21.55286
G1 X56.484 Y291.568 E21.68309
G1 X51.682 Y288.897 E21.81229
G1 X47.292 Y286.003 E21.93592
G1 X43.429 Y282.994 E22.05106
G1 X41.026 Y280.769 E22.12806
G1 X40.146 Y279.953 E22.15628
G1 X37.452 Y276.936 E22.25138
G1 X35.323 Y273.965 E22.33733
G1 X33.710 Y271.006 E22.41657
G1 X33.401 Y270.204 E22.43678
G1 X32.631 Y268.205 E22.48715
G1 X31.923 Y265.284 E22.55782
G1 X31.828 Y264.410 E22.57849
G1 X31.588 Y262.217 E22.63036
G1 X31.602 Y261.297 E22.65200
G1 X31.639 Y258.956 E22.70705
G1 X32.107 Y255.439 E22.79047
G1 X32.798 Y252.579 E22.85965
G1 X33.052 Y251.534 E22.88494
G1 X34.616 Y246.968 E22.99843
G1 X36.948 Y241.525 E23.13766
G1 X38.049 Y239.274 E23.19658
G1 X41.247 Y232.738 E23.36767
G1 X44.518 Y225.999 E23.54381
G1 X45.061 Y224.741 E23.57602
G1 X46.750 Y220.835 E23.67609
G1 X48.337 Y216.418 E23.78644
G1 X49.416 Y212.495 E23.88211
G1 X49.566 Y211.664 E23.90197
G1 X50.068 Y208.901 E23.96800
G1 X50.130 Y208.147 E23.98579
G1 X50.342 Y205.560 E24.04682
G1 X50.326 Y204.852 E24.06347
G1 X50.268 Y202.393 E24.12131
G1 X50.178 Y201.712 E24.13746
G1 X49.858 Y199.311 E24.19441
G1 X48.995 Y195.640 E24.28308
G1 X47.645 Y191.480 E24.38592
G1 X46.251 Y187.863 E24.47706
G1 X44.702 Y184.175 E24.57112
G1 X44.703 Y184.175 E24.57114
G1 X41.671 Y177.024 E24.75377
G1 X40.509 Y173.855 E24.83314
G1 X40.084 Y172.693 E24.86223
G1 X39.399 Y170.183 E24.92341
G1 X39.132 Y169.207 E24.94720
G1 X38.684 Y166.209 E25.01847
G1 X38.694 Y163.524 E25.08161
G1 X39.175 Y161.044 E25.14101
G1 X40.085 Y158.868 E25.19647
G1 X41.440 Y156.837 E25.25387
G1 X42.724 Y155.505 E25.29738
G1 X43.262 Y154.945 E25.31563
G1 X44.937 Y153.682 E25.36496
G1 X45.599 Y153.182 E25.38447
G1 X46.439 Y152.709 E25.40713
G1 X48.547 Y151.521 E25.46403
G1 X49.567 Y151.086 E25.49010
G1 X52.273 Y149.931 E25.55928
G1 X57.084 Y148.368 E25.67823
G1 X62.846 Y146.920 E25.81792
G1 X64.265 Y146.628 E25.85199
G1 X68.361 Y145.783 E25.95032
G1 X74.014 Y144.755 E26.08542
G1 X85.256 Y142.800 E26.35373
G1 X91.093 Y141.632 E26.49369
G1 X92.985 Y141.253 E26.53906
G1 X97.473 Y140.135 E26.64782
G1 X98.892 Y139.781 E26.68220
G1 X103.503 Y138.324 E26.79591
G1 X107.100 Y136.871 E26.88712
G1 X107.727 Y136.546 E26.90373
G1 X107.727 Y136.547 E26.90375
G1 X109.851 Y135.443 E26.96004
G1 X110.299 Y135.138 E26.97278
G1 X111.926 Y134.037 E27.01897
G1 X113.430 Y132.685 E27.06653
G1 X113.623 Y132.445 E27.07377
G1 X114.498 Y131.361 E27.10652
G1 X114.609 Y131.157 E27.11198
G1 X115.215 Y130.049 E27.14168
G1 X115.664 Y128.655 E27.17611
G1 X115.842 Y127.302 E27.20820
G1 X115.799 Y126.002 E27.23879
G1 X115.789 Y125.729 E27.24521
G1 X115.726 Y125.387 E27.25339
G1 X115.443 Y123.868 E27.28972
G1 X114.726 Y121.682 E27.34381
G1 X113.807 Y119.690 E27.39539
G1 X113.540 Y119.113 E27.41034
G1 X111.786 Y116.121 E27.49189
G1 X111.223 Y115.320 E27.51491
G1 X109.361 Y112.674 E27.59099
G1 X106.141 Y108.711 E27.71105
G1 X103.010 Y105.287 E27.82015
G1 X101.995 Y104.178 E27.85550
G1 X96.801 Y99.032 E28.02742
G1 X90.401 Y93.201 E28.23099
G1 X82.596 Y86.580 E28.47165
G1 X73.258 Y79.131 E28.75252
G1 X61.715 Y70.410 E29.09269
G1 X48.505 Y60.891 E29.47554
G1 X47.285 Y60.014 E29.51087
G1 X43.588 Y57.358 E29.61790
G1 X39.067 Y53.980 E29.75060
G1 X32.055 Y48.401 E29.96129
G1 X26.585 Y43.605 E30.13235
G1 X23.513 Y40.569 E30.23390
G1 X22.425 Y39.493 E30.26988
G1 X19.349 Y35.958 E30.38006
G1 X18.763 Y35.134 E30.40384
G1 X17.158 Y32.885 E30.46881
G1 X15.692 Y30.167 E30.54142
G1 X14.887 Y27.905 E30.59787
G1 X14.568 Y26.154 E30.63972
G1 X14.555 Y24.438 E30.68007
G1 X14.873 Y22.761 E30.72021
G1 X15.544 Y21.183 E30.76052
G1 X16.637 Y19.661 E30.80458
G1 F2400 E26.30458
G0 F9000 X19.614 Y22.374
;TYPE:WALL-INNER
G1 F2400 E30.80458
G1 F6000 X20.614 Y21.506 E30.83572
G1 X22.105 Y20.688 E30.87571
G1 X24.211 Y19.970 E30.92802
G1 X27.076 Y19.408 E30.99667
G1 X30.838 Y19.075 E31.08548
G1 X35.633 Y19.048 E31.19822
G1 X41.606 Y19.407 E31.33892
G1 X48.793 Y20.227 E31.50901
G1 X57.299 Y21.579 E31.71152
G1 X67.001 Y23.495 E31.94405
G1 X77.758 Y25.987 E32.20368
G1 X89.183 Y28.990 E32.48144
G1 X100.878 Y32.409 E32.76794
G1 X113.561 Y36.506 E33.08133
G1 X125.225 Y40.665 E33.37250
G1 X135.488 Y44.701 E33.63181
G1 X144.073 Y48.445 E33.85203
G1 X151.320 Y51.987 E34.04170
G1 X157.333 Y55.318 E34.20332
G1 X162.297 Y58.468 E34.34156
G1 X166.349 Y61.458 E34.45997
G1 X169.622 Y64.310 E34.56204
G1 X172.197 Y67.022 E34.64998
G1 X174.188 Y69.634 E34.72720
G1 X175.672 Y72.171 E34.79631
G1 X176.706 Y74.662 E34.85973
G1 X177.285 Y76.888 E34.91381
G1 X177.550 Y79.144 E34.96722
G1 X177.539 Y79.696 E34.98020
G1 X177.501 Y81.460 E35.02169
G1 X177.120 Y83.879 E35.07927
G1 X176.374 Y86.435 E35.14188
G1 X175.165 Y89.265 E35.21424
G1 X173.287 Y92.625 E35.30474
G1 X170.696 Y96.463 E35.41363
G1 X168.065 Y99.946 E35.51626
G1 X165.205 Y103.526 E35.62400
G1 X159.293 Y110.884 E35.84594
G1 X155.649 Y115.794 E35.98971
G1 X152.881 Y120.026 E36.10861
G1 X150.768 Y123.858 E36.21151
G1 X149.197 Y127.425 E36.30315
G1 X148.101 Y130.807 E36.38674
G1 X147.437 Y134.062 E36.46486
G1 X147.182 Y137.234 E36.53968
G1 X147.329 Y140.397 E36.61413
G1 X147.858 Y143.479 E36.68766
G1 X148.817 Y146.834 E36.76971
G1 X150.275 Y150.530 E36.86313
G1 X152.329 Y154.667 E36.97173
G1 X155.147 Y159.420 E37.10166
G1 X158.593 Y164.510 E37.24619
G1 X162.616 Y169.924 E37.40479
G1 X170.395 Y179.750 E37.69946
G1 X175.433 Y186.214 E37.89217
G1 X178.665 Y190.747 E38.02307
G1 X180.816 Y194.245 E38.11962
G1 X182.175 Y197.006 E38.19198
G1 X182.360 Y197.546 E38.20540
G1 X182.940 Y199.232 E38.24733
G1 X183.239 Y200.961 E38.28858
G1 X183.236 Y202.123 E38.31591
G1 X183.037 Y203.186 E38.34134
G1 X182.634 Y204.157 E38.36606
G1 X181.926 Y205.150 E38.39473
G1 X180.786 Y206.151 E38.43040
G1 X179.016 Y207.181 E38.47855
G1 X176.342 Y208.244 E38.54621
G1 X172.356 Y209.335 E38.64339
G1 X166.687 Y210.419 E38.77910
G1 X150.946 Y212.591 E39.15273
G1 X143.424 Y213.743 E39.33165
G1 X137.769 Y214.883 E39.46730
G1 X133.365 Y216.077 E39.57459
G1 X129.911 Y217.341 E39.66107
G1 X127.212 Y218.679 E39.73190
G1 X125.126 Y220.096 E39.79120
G1 X123.547 Y221.605 E39.84255
G1 X122.407 Y223.227 E39.88917
G1 X121.675 Y224.981 E39.93386
G1 X121.359 Y226.715 E39.97530
G1 X121.384 Y228.181 E40.00977
G1 X121.394 Y228.710 E40.02222
G1 X121.831 Y230.962 E40.07615
G1 X122.702 Y233.432 E40.13774
G1 X124.014 Y236.040 E40.20638
G1 X125.732 Y238.668 E40.28021
G1 X128.020 Y241.451 E40.36492
G1 X130.585 Y243.946 E40.44906
G1 X133.298 Y246.052 E40.52981
G1 X136.058 Y247.717 E40.60560
G1 X138.794 Y248.933 E40.67600
G1 X139.486 Y249.133 E40.69294
G1 X141.466 Y249.709 E40.74143
G1 X143.279 Y249.966 E40.78448
G1 X143.918 Y250.057 E40.79966
G1 X146.551 Y250.058 E40.86157
G1 X149.417 Y249.677 E40.92955
G1 X152.598 Y248.854 E41.00681
G1 X156.251 Y247.478 E41.09859
G1 X160.256 Y245.553 E41.20308
G1 X163.459 Y243.783 E41.28912
G1 X172.127 Y238.666 E41.52580
G1 X175.119 Y237.140 E41.60477
G1 X177.186 Y236.360 E41.65672
G1 X178.374 Y236.095 E41.68534
G1 X178.992 Y236.051 E41.69991
G1 X179.153 Y236.039 E41.70371
G1 X179.847 Y236.105 E41.72010
G1 X180.337 Y236.255 E41.73215
G1 X180.446 Y236.288 E41.73482
G1 X181.055 Y236.636 E41.75132
G1 X181.737 Y237.280 E41.77337
G1 X182.478 Y238.432 E41.80558
G1 X183.128 Y240.138 E41.84851
G1 X183.618 Y242.516 E41.90560
G1 X183.859 Y245.614 E41.97866
G1 X183.777 Y249.422 E42.06822
G1 X183.320 Y253.822 E42.17223
G1 X182.472 Y258.651 E42.28752
G1 X181.113 Y264.171 E42.42118
G1 X179.393 Y269.552 E42.55401
G1 X177.410 Y274.547 E42.68038
G1 X175.263 Y278.993 E42.79647
G1 X173.043 Y282.792 E42.89993
G1 X170.804 Y285.946 E42.99088
G1 X168.583 Y288.489 E43.07027
G1 X166.248 Y290.605 E43.14436
G1 X164.068 Y292.146 E43.20713
G1 X161.774 Y293.387 E43.26846
G1 X159.391 Y294.321 E43.32864
G1 X157.489 Y294.805 E43.37479
G1 X156.882 Y294.960 E43.38952
G1 X156.253 Y295.040 E43.40443
G1 X154.260 Y295.295 E43.45167
G1 X151.503 Y295.317 E43.51650
G1 X148.602 Y295.006 E43.58510
G1 X145.561 Y294.343 E43.65829
G1 X142.386 Y293.303 E43.73684
G1 X139.097 Y291.868 E43.82122
G1 X135.720 Y290.024 E43.91169
G1 X132.260 Y287.747 E44.00908
G1 X128.793 Y285.064 E44.11216
G1 X125.350 Y281.977 E44.22089
G1 X121.971 Y278.498 E44.33493
G1 X118.733 Y274.696 E44.45235
G1 X115.346 Y270.130 E44.58603
G1 X112.215 Y265.242 E44.72252
G1 X109.435 Y260.177 E44.85837
G1 X107.009 Y254.950 E44.99387
G1 X104.974 Y249.647 E45.12742
G1 X103.340 Y244.322 E45.25839
G1 X102.108 Y239.011 E45.38659
G1 X101.283 Y233.766 E45.51143
G1 X100.859 Y228.625 E45.63272
G1 X100.811 Y223.748 E45.74740
G1 X101.114 Y218.540 E45.87006
G1 X101.792 Y213.003 E46.00123
G1 X102.892 Y207.003 E46.14466
G1 X104.463 Y200.502 E46.30192
G1 X106.603 Y193.287 E46.47887
G1 X109.188 Y185.822 E46.66462
G1 X111.447 Y179.917 E46.81328
G1 X113.657 Y174.448 E46.95198
G1 X117.555 Y164.980 E47.19273
G1 X119.353 Y160.168 E47.31352
G1 X120.213 Y157.182 E47.38658
G1 X120.484 Y155.443 E47.42796
G1 X120.479 Y154.727 E47.44480
G1 X120.476 Y154.442 E47.45150
G1 X120.363 Y153.830 E47.46613
G1 X120.204 Y153.395 E47.47702
G1 X119.973 Y153.006 E47.48766
G1 X119.664 Y152.667 E47.49845
G1 X119.253 Y152.386 E47.51015
G1 X118.751 Y152.196 E47.52277
G1 X118.170 Y152.107 E47.53660
G1 X116.994 Y152.199 E47.56433
G1 X114.900 Y152.845 E47.61586
G1 X111.951 Y154.257 E47.69274
G1 X108.156 Y156.544 E47.79692
G1 X103.742 Y159.649 E47.92381
G1 X98.552 Y163.788 E48.07990
G1 X93.517 Y168.300 E48.23887
G1 X88.958 Y172.876 E48.39075
G1 X85.043 Y177.306 E48.52976
G1 X81.830 Y181.470 E48.65343
G1 X79.280 Y185.345 E48.76250
G1 X77.211 Y189.191 E48.86519
G1 X75.734 Y192.660 E48.95384
G1 X74.598 Y196.170 E49.04059
G1 X73.788 Y199.767 E49.12728
G1 X73.300 Y203.504 E49.21590
G1 X73.142 Y207.448 E49.30871
G1 X73.335 Y211.696 E49.40870
G1 X73.927 Y216.397 E49.52011
G1 X75.013 Y221.830 E49.65038
G1 X76.590 Y227.835 E49.79636
G1 X78.300 Y233.423 E49.93377
G1 X80.215 Y239.208 E50.07705
G1 X84.381 Y251.462 E50.38138
G1 X87.172 Y260.231 E50.59776
G1 X89.093 Y267.179 E50.76726
G1 X90.343 Y272.828 E50.90330
G1 X91.051 Y277.455 E51.01336
G1 X91.312 Y281.235 E51.10245
G1 X91.208 Y284.322 E51.17508
G1 X90.809 Y286.792 E51.23391
G1 X90.163 Y288.784 E51.28315
G1 X89.312 Y290.363 E51.32532
G1 X88.257 Y291.615 E51.36382
G1 X87.082 Y292.525 E51.39876
G1 X85.920 Y293.103 E51.42928
G1 X85.570 Y293.277 E51.43847
G1 X83.669 Y293.831 E51.48503
G1 X83.108 Y293.904 E51.49833
G1 X81.307 Y294.141 E51.54104
G1 X78.478 Y294.144 E51.60756
G1 X75.159 Y293.781 E51.68607
G1 X71.411 Y293.008 E51.77605
G1 X67.326 Y291.809 E51.87615
G1 X63.062 Y290.203 E51.98329
G1 X58.292 Y287.997 E52.10686
G1 X53.760 Y285.475 E52.22881
G1 X49.629 Y282.753 E52.34513
G1 X46.019 Y279.941 E52.45273
G1 X43.003 Y277.147 E52.54940
G1 X40.581 Y274.434 E52.63491
G1 X38.714 Y271.829 E52.71027
G1 X37.349 Y269.326 E52.77731
G1 X36.458 Y267.012 E52.83561
G1 X35.872 Y264.596 E52.89407
G1 X35.592 Y262.028 E52.95481
G1 X35.635 Y259.248 E53.02018
G1 X36.043 Y256.178 E53.09300
G1 X36.894 Y252.661 E53.17808
G1 X38.356 Y248.394 E53.28414
G1 X40.577 Y243.209 E53.41677
G1 X44.840 Y234.495 E53.64487
G1 X48.150 Y227.677 E53.82307
G1 X50.472 Y222.307 E53.96064
G1 X52.153 Y217.631 E54.07748
G1 X53.320 Y213.383 E54.18106
G1 X54.039 Y209.428 E54.27558
G1 X54.346 Y205.679 E54.36403
G1 X54.262 Y202.080 E54.44867
G1 X53.798 Y198.589 E54.53148
G1 X52.851 Y194.563 E54.62873
G1 X51.421 Y190.155 E54.73769
G1 X49.952 Y186.345 E54.83370
G1 X48.390 Y182.626 E54.92855
G1 X45.386 Y175.537 E55.10958
G1 X43.900 Y171.483 E55.21111
G1 X43.053 Y168.380 E55.28674
G1 X42.685 Y165.918 E55.34527
G1 X42.693 Y163.914 E55.39239
G1 X43.023 Y162.209 E55.43323
G1 X43.626 Y160.767 E55.46998
G1 X44.569 Y159.354 E55.50992
G1 X45.921 Y157.951 E55.55573
G1 X47.796 Y156.536 E55.61097
G1 X50.322 Y155.112 E55.67915
G1 X53.681 Y153.679 E55.76502
G1 X58.192 Y152.213 E55.87654
G1 X63.721 Y150.824 E56.01059
G1 X69.131 Y149.709 E56.14047
G1 X74.712 Y148.694 E56.27385
G1 X85.989 Y146.732 E56.54299
G1 X93.857 Y145.158 E56.73166
G1 X99.984 Y143.631 E56.88013
G1 X104.863 Y142.089 E57.00044
G1 X108.773 Y140.510 E57.09959
G1 X111.904 Y138.882 E57.18257
G1 X114.394 Y137.196 E57.25328
G1 X116.346 Y135.441 E57.31500
G1 X117.835 Y133.595 E57.37076
G1 X118.907 Y131.635 E57.42329
G1 X119.582 Y129.539 E57.47507
G1 X119.851 Y127.498 E57.52347
G1 X119.777 Y125.290 E57.57542
G1 X119.327 Y122.876 E57.63316
G1 X118.454 Y120.214 E57.69903
G1 X117.091 Y117.259 E57.77555
G1 X115.155 Y113.958 E57.86553
G1 X112.551 Y110.257 E57.97193
G1 X109.169 Y106.095 E58.09803
G1 X104.885 Y101.410 E58.24730
G1 X99.558 Y96.133 E58.42361
G1 X93.034 Y90.190 E58.63111
G1 X85.147 Y83.499 E58.87431
G1 X75.711 Y75.971 E59.15814
G1 X64.076 Y67.181 E59.50101
G1 X50.843 Y57.645 E59.88453
G1 X45.958 Y54.135 E60.02597
G1 X41.501 Y50.805 E60.15679
G1 X34.625 Y45.334 E60.36340
G1 X29.310 Y40.673 E60.52962
G1 X25.342 Y36.751 E60.66080
G1 X22.495 Y33.480 E60.76276
G1 X20.559 Y30.765 E60.84117
G1 X19.358 Y28.539 E60.90064
G1 X18.764 Y26.869 E60.94232
G1 X18.565 Y25.777 E60.96842
G1 X18.558 Y24.799 E60.99142
G1 X18.723 Y23.928 E61.01226
G1 X19.050 Y23.158 E61.03193
G1 X19.614 Y22.374 E61.05464
G0 F9000 X19.241 Y22.036
;TYPE:WALL-OUTER
G1 F6000 X20.331 Y21.090 E61.08857
G1 X21.896 Y20.231 E61.13055
G1 X24.086 Y19.485 E61.18495
G1 X27.002 Y18.913 E61.25482
G1 X30.815 Y18.575 E61.34483
G1 X35.645 Y18.548 E61.45840
G1 X41.646 Y18.909 E61.59976
G1 X48.867 Y19.732 E61.77065
G1 X57.387 Y21.086 E61.97349
G1 X67.106 Y23.005 E62.20643
G1 X77.871 Y25.500 E62.46626
G1 X89.329 Y28.512 E62.74483
G1 X101.032 Y31.933 E63.03152
G1 X113.715 Y36.030 E63.34491
G1 X125.408 Y40.200 E63.63681
G1 X135.679 Y44.239 E63.89631
G1 X144.285 Y47.993 E64.11708
G1 X151.552 Y51.544 E64.30726
G1 X157.597 Y54.893 E64.46975
G1 X162.591 Y58.063 E64.60884
G1 X166.659 Y61.064 E64.72770
G1 X169.966 Y63.947 E64.83086
G1 X172.574 Y66.692 E64.91989
G1 X174.607 Y69.360 E64.99876
G1 X176.120 Y71.947 E65.06923
G1 X177.181 Y74.502 E65.13428
G1 X177.778 Y76.799 E65.19008
G1 X178.051 Y79.117 E65.24496
G1 X178.000 Y81.505 E65.30112
G1 X177.609 Y83.988 E65.36023
G1 X176.845 Y86.604 E65.42431
G1 X175.613 Y89.490 E65.49809
G1 X173.713 Y92.889 E65.58965
G1 X171.113 Y96.741 E65.69893
G1 X168.456 Y100.258 E65.80257
G1 X159.689 Y111.190 E66.13206
G1 X156.059 Y116.080 E66.27526
G1 X153.310 Y120.284 E66.39337
G1 X151.217 Y124.080 E66.49529
G1 X149.665 Y127.603 E66.58581
G1 X148.586 Y130.934 E66.66814
G1 X147.933 Y134.132 E66.74489
G1 X147.683 Y137.243 E66.81827
G1 X147.827 Y140.343 E66.89124
G1 X148.346 Y143.368 E66.96341
G1 X149.291 Y146.673 E67.04423
G1 X150.732 Y150.327 E67.13659
G1 X152.768 Y154.428 E67.24425
G1 X155.570 Y159.152 E67.37339
G1 X159.001 Y164.221 E67.51732
G1 X163.013 Y169.620 E67.67548
G1 X170.789 Y179.443 E67.97006
G1 X175.821 Y185.898 E68.16250
G1 X179.088 Y190.479 E68.29480
G1 X181.257 Y194.006 E68.39216
G1 X182.636 Y196.811 E68.46565
G1 X183.427 Y199.113 E68.52289
G1 X183.739 Y200.918 E68.56596
G1 X183.736 Y202.168 E68.59535
G1 X183.518 Y203.331 E68.62317
G1 X183.074 Y204.403 E68.65046
G1 X182.299 Y205.487 E68.68179
G1 X181.082 Y206.556 E68.71988
G1 X179.230 Y207.634 E68.77026
G1 X176.507 Y208.717 E68.83917
G1 X172.467 Y209.822 E68.93765
G1 X166.773 Y210.911 E69.07396
G1 X151.018 Y213.086 E69.44792
G1 X143.511 Y214.236 E69.62650
G1 X137.884 Y215.370 E69.76146
G1 X133.516 Y216.554 E69.86788
G1 X130.108 Y217.801 E69.95321
G1 X127.465 Y219.112 E70.02258
G1 X125.441 Y220.487 E70.08011
G1 X123.928 Y221.933 E70.12932
G1 X122.848 Y223.470 E70.17349
G1 X122.157 Y225.124 E70.21564
G1 X121.860 Y226.756 E70.25464
G1 X121.893 Y228.657 E70.29935
G1 X122.315 Y230.831 E70.35142
G1 X123.163 Y233.236 E70.41138
G1 X124.448 Y235.790 E70.47861
G1 X126.135 Y238.371 E70.55111
G1 X128.389 Y241.112 E70.63455
G1 X130.914 Y243.568 E70.71737
G1 X133.581 Y245.639 E70.79677
G1 X136.289 Y247.273 E70.87114
G1 X138.966 Y248.462 E70.94001
G1 X141.571 Y249.219 E71.00380
G1 X143.953 Y249.557 E71.06037
G1 X146.518 Y249.558 E71.12068
G1 X149.321 Y249.185 E71.18717
G1 X152.447 Y248.377 E71.26308
G1 X156.054 Y247.018 E71.35372
G1 X160.027 Y245.108 E71.45737
G1 X163.211 Y243.349 E71.54290
G1 X171.880 Y238.231 E71.77961
G1 X174.923 Y236.680 E71.85992
G1 X177.040 Y235.880 E71.91313
G1 X178.303 Y235.599 E71.94355
G1 X178.955 Y235.552 E71.95892
G1 X179.157 Y235.537 E71.96369
G1 X179.942 Y235.612 E71.98223
G1 X180.646 Y235.827 E71.99954
G1 X181.352 Y236.229 E72.01864
G1 X182.128 Y236.962 E72.04374
G1 X182.925 Y238.201 E72.07838
G1 X183.611 Y240.001 E72.12367
G1 X184.114 Y242.448 E72.18241
G1 X184.360 Y245.592 E72.25656
G1 X184.276 Y249.447 E72.34723
G1 X183.814 Y253.905 E72.45261
G1 X182.965 Y258.736 E72.56794
G1 X181.592 Y264.311 E72.70295
G1 X179.860 Y269.731 E72.83674
G1 X177.870 Y274.746 E72.96360
G1 X175.707 Y279.225 E73.08055
G1 X173.465 Y283.062 E73.18505
G1 X171.195 Y286.259 E73.27724
G1 X168.940 Y288.841 E73.35784
G1 X166.565 Y290.993 E73.43320
G1 X164.331 Y292.572 E73.49753
G1 X161.989 Y293.840 E73.56015
G1 X159.540 Y294.799 E73.62199
G1 X156.981 Y295.452 E73.68409
G1 X154.295 Y295.795 E73.74776
G1 X151.480 Y295.817 E73.81395
G1 X148.515 Y295.500 E73.88406
G1 X145.438 Y294.828 E73.95812
G1 X142.207 Y293.770 E74.03806
G1 X138.876 Y292.317 E74.12351
G1 X135.457 Y290.450 E74.21511
G1 X131.976 Y288.160 E74.31308
G1 X128.470 Y285.445 E74.41734
G1 X124.993 Y282.328 E74.52714
G1 X121.606 Y278.842 E74.64143
G1 X118.347 Y275.013 E74.75965
G1 X114.930 Y270.407 E74.89450
G1 X111.788 Y265.503 E75.03145
G1 X108.990 Y260.405 E75.16819
G1 X106.545 Y255.137 E75.30475
G1 X104.501 Y249.810 E75.43890
G1 X102.857 Y244.454 E75.57064
G1 X101.616 Y239.102 E75.69982
G1 X100.787 Y233.829 E75.82533
G1 X100.359 Y228.643 E75.94768
G1 X100.311 Y223.741 E76.06295
G1 X100.616 Y218.497 E76.18646
G1 X101.298 Y212.923 E76.31850
G1 X102.400 Y206.911 E76.46222
G1 X103.978 Y200.379 E76.62022
G1 X106.130 Y193.123 E76.79818
G1 X108.721 Y185.643 E76.98431
G1 X110.978 Y179.743 E77.13285
G1 X113.196 Y174.257 E77.27198
G1 X117.090 Y164.797 E77.51252
G1 X118.878 Y160.011 E77.63266
G1 X119.724 Y157.074 E77.70452
G1 X119.984 Y155.406 E77.74422
G1 X119.977 Y154.490 E77.76575
G1 X119.879 Y153.963 E77.77836
G1 X119.750 Y153.610 E77.78720
G1 X119.569 Y153.305 E77.79553
G1 X119.334 Y153.047 E77.80374
G1 X119.020 Y152.833 E77.81267
G1 X118.623 Y152.682 E77.82266
G1 X118.151 Y152.610 E77.83389
G1 X117.089 Y152.693 E77.85894
G1 X115.083 Y153.312 E77.90830
G1 X112.188 Y154.698 E77.98377
G1 X108.429 Y156.963 E78.08696
G1 X104.042 Y160.050 E78.21309
G1 X98.875 Y164.170 E78.36848
G1 X93.861 Y168.663 E78.52678
G1 X89.323 Y173.218 E78.67796
G1 X85.429 Y177.625 E78.81624
G1 X82.237 Y181.761 E78.93909
G1 X79.710 Y185.602 E79.04719
G1 X77.662 Y189.408 E79.14882
G1 X76.203 Y192.835 E79.23640
G1 X75.081 Y196.302 E79.32208
G1 X74.281 Y199.854 E79.40769
G1 X73.799 Y203.546 E79.49524
G1 X73.643 Y207.447 E79.58704
G1 X73.834 Y211.653 E79.68604
G1 X74.421 Y216.317 E79.79657
G1 X75.500 Y221.717 E79.92605
G1 X77.071 Y227.698 E80.07145
G1 X78.777 Y233.272 E80.20851
G1 X80.689 Y239.049 E80.35160
G1 X84.858 Y251.311 E80.65612
G1 X87.650 Y260.084 E80.87260
G1 X89.578 Y267.057 E81.04271
G1 X90.834 Y272.734 E81.17942
G1 X91.549 Y277.405 E81.29053
G1 X91.813 Y281.227 E81.38061
G1 X91.708 Y284.364 E81.45441
G1 X91.295 Y286.915 E81.51518
G1 X90.626 Y288.978 E81.56617
G1 X89.727 Y290.645 E81.61070
G1 X88.604 Y291.977 E81.65167
G1 X87.345 Y292.953 E81.68913
G1 X85.754 Y293.744 E81.73090
G1 X83.769 Y294.323 E81.77952
G1 X81.343 Y294.641 E81.83705
G1 X78.452 Y294.644 E81.90503
G1 X75.078 Y294.275 E81.98484
G1 X71.290 Y293.494 E82.07578
G1 X67.170 Y292.285 E82.17674
G1 X62.864 Y290.663 E82.28493
G1 X58.068 Y288.444 E82.40919
G1 X53.506 Y285.906 E82.53194
G1 X49.330 Y283.154 E82.64953
G1 X45.695 Y280.322 E82.75788
G1 X42.648 Y277.500 E82.85553
G1 X40.188 Y274.745 E82.94238
G1 X38.292 Y272.099 E83.01892
G1 X36.893 Y269.534 E83.08761
G1 X35.980 Y267.161 E83.14740
G1 X35.379 Y264.684 E83.20733
G1 X35.091 Y262.050 E83.26963
G1 X35.136 Y259.217 E83.33625
G1 X35.552 Y256.082 E83.41061
G1 X36.414 Y252.520 E83.49679
G1 X37.888 Y248.217 E83.60373
G1 X40.128 Y242.990 E83.73745
G1 X47.695 Y227.469 E84.14346
G1 X50.007 Y222.123 E84.28041
G1 X51.676 Y217.480 E84.39642
G1 X52.832 Y213.272 E84.49903
G1 X53.542 Y209.363 E84.59245
G1 X53.845 Y205.664 E84.67972
G1 X53.763 Y202.119 E84.76309
G1 X53.305 Y198.679 E84.84469
G1 X52.369 Y194.698 E84.94085
G1 X50.950 Y190.322 E85.04902
G1 X49.488 Y186.532 E85.14453
G1 X44.926 Y175.733 E85.42018
G1 X43.420 Y171.625 E85.52306
G1 X42.563 Y168.482 E85.59966
G1 X42.185 Y165.957 E85.65969
G1 X42.193 Y163.865 E85.70888
G1 X42.542 Y162.065 E85.75199
G1 X43.183 Y160.530 E85.79111
G1 X44.179 Y159.038 E85.83329
G1 X45.587 Y157.577 E85.88100
G1 X47.523 Y156.116 E85.93802
G1 X50.099 Y154.663 E86.00757
G1 X53.501 Y153.212 E86.09453
G1 X58.060 Y151.731 E86.20724
G1 X63.620 Y150.334 E86.34204
G1 X69.025 Y149.220 E86.47180
G1 X74.628 Y148.201 E86.60570
G1 X85.897 Y146.241 E86.87465
G1 X93.748 Y144.670 E87.06291
G1 X99.848 Y143.150 E87.21073
G1 X104.694 Y141.618 E87.33023
G1 X108.564 Y140.055 E87.42837
G1 X111.648 Y138.452 E87.51010
G1 X114.085 Y136.801 E87.57931
G1 X115.982 Y135.096 E87.63928
G1 X117.418 Y133.316 E87.69306
G1 X118.446 Y131.437 E87.74342
G1 X119.092 Y129.429 E87.79302
G1 X119.350 Y127.473 E87.83941
G1 X119.278 Y125.344 E87.88949
G1 X118.842 Y123.000 E87.94555
G1 X117.988 Y120.397 E88.00997
G1 X116.647 Y117.491 E88.08522
G1 X114.734 Y114.229 E88.17414
G1 X112.152 Y110.559 E88.27965
G1 X108.790 Y106.422 E88.40499
G1 X104.524 Y101.757 E88.55363
G1 X99.213 Y96.496 E88.72941
G1 X92.704 Y90.565 E88.93646
G1 X84.830 Y83.885 E89.17926
G1 X75.404 Y76.366 E89.46277
G1 X63.779 Y67.584 E89.80534
G1 X45.655 Y54.533 E90.33048
G1 X41.208 Y51.210 E90.46101
G1 X34.295 Y45.710 E90.66873
G1 X28.974 Y41.044 E90.83513
G1 X24.979 Y37.096 E90.96720
G1 X22.102 Y33.789 E91.07026
G1 X20.134 Y31.029 E91.14997
G1 X18.900 Y28.743 E91.21105
G1 X18.279 Y26.997 E91.25462
G1 X18.066 Y25.824 E91.28266
G1 X18.057 Y24.756 E91.30777
G1 X18.242 Y23.782 E91.33108
G1 X18.613 Y22.909 E91.35338
G1 X19.241 Y22.036 E91.37867
G0 F9000 X20.108 Y22.971
G28 Y0     ;move Y to min endstops
G28 X0     ;move X to min endstops

;Turn off magnets
M42 P4 S0
M42 P5 S0
