;Code generated by LightPainter
M42 P6 S0 ;turn off led
M42 P5 S0 ;turn off led
M42 P4 S0 ;turn off led
G21        ;metric values
G90        ;absolute positioning
M107       ;start with the fan off
G28 Y0     ;move Y to min endstops
G28 X0     ;move X to min endstops
M42 P6 S255 ;turn off led
M42 P5 S0 ;turn off led
M42 P4 S0 ;turn off led
G1 F6000 X189 Y158
M42 P6 S255 ;turn off led
M42 P5 S0 ;turn off led
M42 P4 S0 ;turn off led
G1 F6000 X188 Y167
M42 P6 S255 ;turn off led
M42 P5 S0 ;turn off led
M42 P4 S0 ;turn off led
G1 F6000 X185 Y176
M42 P6 S255 ;turn off led
M42 P5 S0 ;turn off led
M42 P4 S0 ;turn off led
G1 F6000 X182 Y185
M42 P6 S255 ;turn off led
M42 P5 S0 ;turn off led
M42 P4 S0 ;turn off led
G1 F6000 X178 Y193
M42 P6 S255 ;turn off led
M42 P5 S0 ;turn off led
M42 P4 S0 ;turn off led
G1 F6000 X174 Y200
M42 P6 S255 ;turn off led
M42 P5 S0 ;turn off led
M42 P4 S0 ;turn off led
G1 F6000 X168 Y207
M42 P6 S255 ;turn off led
M42 P5 S0 ;turn off led
M42 P4 S0 ;turn off led
G1 F6000 X162 Y214
M42 P6 S255 ;turn off led
M42 P5 S0 ;turn off led
M42 P4 S0 ;turn off led
G1 F6000 X155 Y220
M42 P6 S255 ;turn off led
M42 P5 S0 ;turn off led
M42 P4 S0 ;turn off led
G1 F6000 X148 Y225
M42 P6 S255 ;turn off led
M42 P5 S0 ;turn off led
M42 P4 S0 ;turn off led
G1 F6000 X140 Y230
M42 P6 S255 ;turn off led
M42 P5 S0 ;turn off led
M42 P4 S0 ;turn off led
G1 F6000 X132 Y233
M42 P6 S255 ;turn off led
M42 P5 S0 ;turn off led
M42 P4 S0 ;turn off led
G1 F6000 X124 Y236
M42 P6 S255 ;turn off led
M42 P5 S0 ;turn off led
M42 P4 S0 ;turn off led
G1 F6000 X115 Y238
M42 P6 S255 ;turn off led
M42 P5 S0 ;turn off led
M42 P4 S0 ;turn off led
G1 F6000 X106 Y239
M42 P6 S255 ;turn off led
M42 P5 S0 ;turn off led
M42 P4 S0 ;turn off led
G1 F6000 X97 Y239
M42 P6 S255 ;turn off led
M42 P5 S0 ;turn off led
M42 P4 S0 ;turn off led
G1 F6000 X88 Y239
M42 P6 S255 ;turn off led
M42 P5 S0 ;turn off led
M42 P4 S0 ;turn off led
G1 F6000 X79 Y237
M42 P6 S255 ;turn off led
M42 P5 S0 ;turn off led
M42 P4 S0 ;turn off led
G1 F6000 X70 Y235
M42 P6 S255 ;turn off led
M42 P5 S0 ;turn off led
M42 P4 S0 ;turn off led
G1 F6000 X62 Y231
M42 P6 S255 ;turn off led
M42 P5 S0 ;turn off led
M42 P4 S0 ;turn off led
G1 F6000 X54 Y227
M42 P6 S255 ;turn off led
M42 P5 S0 ;turn off led
M42 P4 S0 ;turn off led
G1 F6000 X47 Y222
M42 P6 S255 ;turn off led
M42 P5 S0 ;turn off led
M42 P4 S0 ;turn off led
G1 F6000 X40 Y217
M42 P6 S255 ;turn off led
M42 P5 S0 ;turn off led
M42 P4 S0 ;turn off led
G1 F6000 X33 Y210
M42 P6 S255 ;turn off led
M42 P5 S0 ;turn off led
M42 P4 S0 ;turn off led
G1 F6000 X27 Y203
M42 P6 S255 ;turn off led
M42 P5 S0 ;turn off led
M42 P4 S0 ;turn off led
G1 F6000 X22 Y196
M42 P6 S255 ;turn off led
M42 P5 S0 ;turn off led
M42 P4 S0 ;turn off led
G1 F6000 X18 Y188
M42 P6 S255 ;turn off led
M42 P5 S0 ;turn off led
M42 P4 S0 ;turn off led
G1 F6000 X15 Y180
M42 P6 S255 ;turn off led
M42 P5 S0 ;turn off led
M42 P4 S0 ;turn off led
G1 F6000 X12 Y171
M42 P6 S255 ;turn off led
M42 P5 S0 ;turn off led
M42 P4 S0 ;turn off led
G1 F6000 X10 Y162
M42 P6 S255 ;turn off led
M42 P5 S0 ;turn off led
M42 P4 S0 ;turn off led
G1 F6000 X10 Y153
M42 P6 S255 ;turn off led
M42 P5 S0 ;turn off led
M42 P4 S0 ;turn off led
G1 F6000 X10 Y144
M42 P6 S255 ;turn off led
M42 P5 S0 ;turn off led
M42 P4 S0 ;turn off led
G1 F6000 X11 Y135
M42 P6 S255 ;turn off led
M42 P5 S0 ;turn off led
M42 P4 S0 ;turn off led
G1 F6000 X12 Y127
M42 P6 S255 ;turn off led
M42 P5 S0 ;turn off led
M42 P4 S0 ;turn off led
G1 F6000 X15 Y118
M42 P6 S255 ;turn off led
M42 P5 S0 ;turn off led
M42 P4 S0 ;turn off led
G1 F6000 X19 Y110
M42 P6 S255 ;turn off led
M42 P5 S0 ;turn off led
M42 P4 S0 ;turn off led
G1 F6000 X23 Y102
M42 P6 S255 ;turn off led
M42 P5 S0 ;turn off led
M42 P4 S0 ;turn off led
G1 F6000 X28 Y94
M42 P6 S255 ;turn off led
M42 P5 S0 ;turn off led
M42 P4 S0 ;turn off led
G1 F6000 X34 Y88
M42 P6 S255 ;turn off led
M42 P5 S0 ;turn off led
M42 P4 S0 ;turn off led
G1 F6000 X41 Y81
M42 P6 S255 ;turn off led
M42 P5 S0 ;turn off led
M42 P4 S0 ;turn off led
G1 F6000 X48 Y76
M42 P6 S255 ;turn off led
M42 P5 S0 ;turn off led
M42 P4 S0 ;turn off led
G1 F6000 X55 Y71
M42 P6 S255 ;turn off led
M42 P5 S0 ;turn off led
M42 P4 S0 ;turn off led
G1 F6000 X63 Y67
M42 P6 S255 ;turn off led
M42 P5 S0 ;turn off led
M42 P4 S0 ;turn off led
G1 F6000 X72 Y64
M42 P6 S255 ;turn off led
M42 P5 S0 ;turn off led
M42 P4 S0 ;turn off led
G1 F6000 X81 Y62
M42 P6 S255 ;turn off led
M42 P5 S0 ;turn off led
M42 P4 S0 ;turn off led
G1 F6000 X89 Y60
M42 P6 S255 ;turn off led
M42 P5 S0 ;turn off led
M42 P4 S0 ;turn off led
G1 F6000 X98 Y60
M42 P6 S255 ;turn off led
M42 P5 S0 ;turn off led
M42 P4 S0 ;turn off led
G1 F6000 X107 Y60
M42 P6 S255 ;turn off led
M42 P5 S0 ;turn off led
M42 P4 S0 ;turn off led
G1 F6000 X116 Y61
M42 P6 S255 ;turn off led
M42 P5 S0 ;turn off led
M42 P4 S0 ;turn off led
G1 F6000 X125 Y63
M42 P6 S255 ;turn off led
M42 P5 S0 ;turn off led
M42 P4 S0 ;turn off led
G1 F6000 X134 Y66
M42 P6 S255 ;turn off led
M42 P5 S0 ;turn off led
M42 P4 S0 ;turn off led
G1 F6000 X142 Y70
M42 P6 S255 ;turn off led
M42 P5 S0 ;turn off led
M42 P4 S0 ;turn off led
G1 F6000 X149 Y75
M42 P6 S255 ;turn off led
M42 P5 S0 ;turn off led
M42 P4 S0 ;turn off led
G1 F6000 X157 Y80
M42 P6 S255 ;turn off led
M42 P5 S0 ;turn off led
M42 P4 S0 ;turn off led
G1 F6000 X163 Y86
M42 P6 S255 ;turn off led
M42 P5 S0 ;turn off led
M42 P4 S0 ;turn off led
G1 F6000 X169 Y93
M42 P6 S255 ;turn off led
M42 P5 S0 ;turn off led
M42 P4 S0 ;turn off led
G1 F6000 X175 Y100
M42 P6 S255 ;turn off led
M42 P5 S0 ;turn off led
M42 P4 S0 ;turn off led
G1 F6000 X179 Y108
M42 P6 S255 ;turn off led
M42 P5 S0 ;turn off led
M42 P4 S0 ;turn off led
G1 F6000 X183 Y116
M42 P6 S255 ;turn off led
M42 P5 S0 ;turn off led
M42 P4 S0 ;turn off led
G1 F6000 X186 Y124
M42 P6 S255 ;turn off led
M42 P5 S0 ;turn off led
M42 P4 S0 ;turn off led
G1 F6000 X188 Y133
M42 P6 S255 ;turn off led
M42 P5 S0 ;turn off led
M42 P4 S0 ;turn off led
G1 F6000 X189 Y142
M42 P6 S255 ;turn off led
M42 P5 S0 ;turn off led
M42 P4 S0 ;turn off led
G1 F6000 X189 Y151
M42 P6 S255 ;turn off led
M42 P5 S0 ;turn off led
M42 P4 S0 ;turn off led
G1 F6000 X189 Y160
M42 P6 S255 ;turn off led
M42 P5 S0 ;turn off led
M42 P4 S0 ;turn off led
G1 F6000 X187 Y169
M42 P6 S255 ;turn off led
M42 P5 S0 ;turn off led
M42 P4 S0 ;turn off led
G1 F6000 X185 Y178
M42 P6 S255 ;turn off led
M42 P5 S0 ;turn off led
M42 P4 S0 ;turn off led
G1 F6000 X182 Y186
M42 P6 S255 ;turn off led
M42 P5 S0 ;turn off led
M42 P4 S0 ;turn off led
G1 F6000 X178 Y194
M42 P6 S255 ;turn off led
M42 P5 S0 ;turn off led
M42 P4 S0 ;turn off led
G1 F6000 X173 Y202
M42 P6 S255 ;turn off led
M42 P5 S0 ;turn off led
M42 P4 S0 ;turn off led
G1 F6000 X167 Y209
M42 P6 S255 ;turn off led
M42 P5 S0 ;turn off led
M42 P4 S0 ;turn off led
G1 F6000 X161 Y215
M42 P6 S255 ;turn off led
M42 P5 S0 ;turn off led
M42 P4 S0 ;turn off led
G1 F6000 X154 Y221
M42 P6 S255 ;turn off led
M42 P5 S0 ;turn off led
M42 P4 S0 ;turn off led
G1 F6000 X147 Y226
M42 P6 S255 ;turn off led
M42 P5 S0 ;turn off led
M42 P4 S0 ;turn off led
G1 F6000 X139 Y230
M42 P6 S255 ;turn off led
M42 P5 S0 ;turn off led
M42 P4 S0 ;turn off led
G1 F6000 X131 Y234
M42 P6 S255 ;turn off led
M42 P5 S0 ;turn off led
M42 P4 S0 ;turn off led
G1 F6000 X122 Y237
M42 P6 S255 ;turn off led
M42 P5 S0 ;turn off led
M42 P4 S0 ;turn off led
G1 F6000 X113 Y238
M42 P6 S255 ;turn off led
M42 P5 S0 ;turn off led
M42 P4 S0 ;turn off led
G1 F6000 X104 Y239
M42 P6 S255 ;turn off led
M42 P5 S0 ;turn off led
M42 P4 S0 ;turn off led
G1 F6000 X95 Y239
M42 P6 S255 ;turn off led
M42 P5 S0 ;turn off led
M42 P4 S0 ;turn off led
G1 F6000 X86 Y239
M42 P6 S255 ;turn off led
M42 P5 S0 ;turn off led
M42 P4 S0 ;turn off led
G1 F6000 X78 Y237
M42 P6 S255 ;turn off led
M42 P5 S0 ;turn off led
M42 P4 S0 ;turn off led
G1 F6000 X69 Y234
M42 P6 S255 ;turn off led
M42 P5 S0 ;turn off led
M42 P4 S0 ;turn off led
G1 F6000 X61 Y231
M42 P6 S255 ;turn off led
M42 P5 S0 ;turn off led
M42 P4 S0 ;turn off led
G1 F6000 X53 Y226
M42 P6 S255 ;turn off led
M42 P5 S0 ;turn off led
M42 P4 S0 ;turn off led
G1 F6000 X45 Y221
M42 P6 S255 ;turn off led
M42 P5 S0 ;turn off led
M42 P4 S0 ;turn off led
G1 F6000 X38 Y216
M42 P6 S255 ;turn off led
M42 P5 S0 ;turn off led
M42 P4 S0 ;turn off led
G1 F6000 X32 Y209
M42 P6 S255 ;turn off led
M42 P5 S0 ;turn off led
M42 P4 S0 ;turn off led
G1 F6000 X27 Y202
M42 P6 S255 ;turn off led
M42 P5 S0 ;turn off led
M42 P4 S0 ;turn off led
G1 F6000 X22 Y195
M42 P6 S255 ;turn off led
M42 P5 S0 ;turn off led
M42 P4 S0 ;turn off led
G1 F6000 X17 Y187
M42 P6 S255 ;turn off led
M42 P5 S0 ;turn off led
M42 P4 S0 ;turn off led
G1 F6000 X14 Y178
M42 P6 S255 ;turn off led
M42 P5 S0 ;turn off led
M42 P4 S0 ;turn off led
G1 F6000 X12 Y170
M42 P6 S255 ;turn off led
M42 P5 S0 ;turn off led
M42 P4 S0 ;turn off led
G1 F6000 X10 Y161
M42 P6 S255 ;turn off led
M42 P5 S0 ;turn off led
M42 P4 S0 ;turn off led
G1 F6000 X10 Y152
M42 P6 S255 ;turn off led
M42 P5 S0 ;turn off led
M42 P4 S0 ;turn off led
G1 F6000 X10 Y143
M42 P6 S255 ;turn off led
M42 P5 S0 ;turn off led
M42 P4 S0 ;turn off led
G1 F6000 X11 Y134
M42 P6 S255 ;turn off led
M42 P5 S0 ;turn off led
M42 P4 S0 ;turn off led
G1 F6000 X13 Y125
M42 P6 S255 ;turn off led
M42 P5 S0 ;turn off led
M42 P4 S0 ;turn off led
G1 F6000 X16 Y117
M42 P6 S255 ;turn off led
M42 P5 S0 ;turn off led
M42 P4 S0 ;turn off led
G1 F6000 X19 Y108
M42 P6 S255 ;turn off led
M42 P5 S0 ;turn off led
M42 P4 S0 ;turn off led
G1 F6000 X24 Y101
M42 P6 S255 ;turn off led
M42 P5 S0 ;turn off led
M42 P4 S0 ;turn off led
G1 F6000 X29 Y93
M42 P6 S255 ;turn off led
M42 P5 S0 ;turn off led
M42 P4 S0 ;turn off led
G1 F6000 X35 Y87
M42 P6 S255 ;turn off led
M42 P5 S0 ;turn off led
M42 P4 S0 ;turn off led
G1 F6000 X42 Y80
M42 P6 S255 ;turn off led
M42 P5 S0 ;turn off led
M42 P4 S0 ;turn off led
G1 F6000 X49 Y75
M42 P6 S255 ;turn off led
M42 P5 S0 ;turn off led
M42 P4 S0 ;turn off led
G1 F6000 X57 Y70
M42 P6 S255 ;turn off led
M42 P5 S0 ;turn off led
M42 P4 S0 ;turn off led
G1 F6000 X65 Y66
M42 P6 S255 ;turn off led
M42 P5 S0 ;turn off led
M42 P4 S0 ;turn off led
G1 F6000 X73 Y63
M42 P6 S255 ;turn off led
M42 P5 S0 ;turn off led
M42 P4 S0 ;turn off led
G1 F6000 X82 Y61
M42 P6 S255 ;turn off led
M42 P5 S0 ;turn off led
M42 P4 S0 ;turn off led
G1 F6000 X91 Y60
M42 P6 S255 ;turn off led
M42 P5 S0 ;turn off led
M42 P4 S0 ;turn off led
G1 F6000 X100 Y60
M42 P6 S255 ;turn off led
M42 P5 S0 ;turn off led
M42 P4 S0 ;turn off led
G1 F6000 X109 Y60
M42 P6 S255 ;turn off led
M42 P5 S0 ;turn off led
M42 P4 S0 ;turn off led
G1 F6000 X118 Y61
M42 P6 S255 ;turn off led
M42 P5 S0 ;turn off led
M42 P4 S0 ;turn off led
G1 F6000 X126 Y64
M42 P6 S255 ;turn off led
M42 P5 S0 ;turn off led
M42 P4 S0 ;turn off led
G1 F6000 X135 Y67
M42 P6 S255 ;turn off led
M42 P5 S0 ;turn off led
M42 P4 S0 ;turn off led
G1 F6000 X143 Y71
M42 P6 S255 ;turn off led
M42 P5 S0 ;turn off led
M42 P4 S0 ;turn off led
G1 F6000 X151 Y75
M42 P6 S255 ;turn off led
M42 P5 S0 ;turn off led
M42 P4 S0 ;turn off led
G1 F6000 X158 Y81
M42 P6 S255 ;turn off led
M42 P5 S0 ;turn off led
M42 P4 S0 ;turn off led
G1 F6000 X164 Y87
M42 P6 S255 ;turn off led
M42 P5 S0 ;turn off led
M42 P4 S0 ;turn off led
G1 F6000 X170 Y94
M42 P6 S255 ;turn off led
M42 P5 S0 ;turn off led
M42 P4 S0 ;turn off led
G1 F6000 X175 Y101
M42 P6 S255 ;turn off led
M42 P5 S0 ;turn off led
M42 P4 S0 ;turn off led
G1 F6000 X180 Y109
M42 P6 S255 ;turn off led
M42 P5 S0 ;turn off led
M42 P4 S0 ;turn off led
G1 F6000 X184 Y117
M42 P6 S255 ;turn off led
M42 P5 S0 ;turn off led
M42 P4 S0 ;turn off led
G1 F6000 X186 Y126
M42 P6 S255 ;turn off led
M42 P5 S0 ;turn off led
M42 P4 S0 ;turn off led
G1 F6000 X188 Y135
M42 P6 S255 ;turn off led
M42 P5 S0 ;turn off led
M42 P4 S0 ;turn off led
G1 F6000 X189 Y144
M42 P6 S255 ;turn off led
M42 P5 S0 ;turn off led
M42 P4 S0 ;turn off led
G1 F6000 X189 Y153
M42 P6 S255 ;turn off led
M42 P5 S0 ;turn off led
M42 P4 S0 ;turn off led
G1 F6000 X189 Y161
M42 P6 S255 ;turn off led
M42 P5 S0 ;turn off led
M42 P4 S0 ;turn off led
G1 F6000 X187 Y170
M42 P6 S255 ;turn off led
M42 P5 S0 ;turn off led
M42 P4 S0 ;turn off led
G1 F6000 X185 Y179
M42 P6 S255 ;turn off led
M42 P5 S0 ;turn off led
M42 P4 S0 ;turn off led
G1 F6000 X181 Y187
M42 P6 S255 ;turn off led
M42 P5 S0 ;turn off led
M42 P4 S0 ;turn off led
G1 F6000 X177 Y195
M42 P6 S255 ;turn off led
M42 P5 S0 ;turn off led
M42 P4 S0 ;turn off led
G1 F6000 X172 Y203
M42 P6 S255 ;turn off led
M42 P5 S0 ;turn off led
M42 P4 S0 ;turn off led
G1 F6000 X166 Y210
M42 P6 S255 ;turn off led
M42 P5 S0 ;turn off led
M42 P4 S0 ;turn off led
G1 F6000 X160 Y216
M42 P6 S255 ;turn off led
M42 P5 S0 ;turn off led
M42 P4 S0 ;turn off led
G1 F6000 X153 Y222
M42 P6 S255 ;turn off led
M42 P5 S0 ;turn off led
M42 P4 S0 ;turn off led
G1 F6000 X146 Y227
M42 P6 S255 ;turn off led
M42 P5 S0 ;turn off led
M42 P4 S0 ;turn off led
G1 F6000 X138 Y231
M42 P6 S255 ;turn off led
M42 P5 S0 ;turn off led
M42 P4 S0 ;turn off led
G1 F6000 X129 Y234
M42 P6 S255 ;turn off led
M42 P5 S0 ;turn off led
M42 P4 S0 ;turn off led
G1 F6000 X121 Y237
M42 P6 S255 ;turn off led
M42 P5 S0 ;turn off led
M42 P4 S0 ;turn off led
G1 F6000 X112 Y239
M42 P6 S255 ;turn off led
M42 P5 S0 ;turn off led
M42 P4 S0 ;turn off led
G1 F6000 X103 Y239
M42 P6 S255 ;turn off led
M42 P5 S0 ;turn off led
M42 P4 S0 ;turn off led
G1 F6000 X94 Y239
M42 P6 S255 ;turn off led
M42 P5 S0 ;turn off led
M42 P4 S0 ;turn off led
G1 F6000 X85 Y238
M42 P6 S255 ;turn off led
M42 P5 S0 ;turn off led
M42 P4 S0 ;turn off led
G1 F6000 X76 Y236
M42 P6 S255 ;turn off led
M42 P5 S0 ;turn off led
M42 P4 S0 ;turn off led
G1 F6000 X68 Y234
M42 P6 S255 ;turn off led
M42 P5 S0 ;turn off led
M42 P4 S0 ;turn off led
G1 F6000 X59 Y230
M42 P6 S255 ;turn off led
M42 P5 S0 ;turn off led
M42 P4 S0 ;turn off led
G1 F6000 X51 Y226
M42 P6 S255 ;turn off led
M42 P5 S0 ;turn off led
M42 P4 S0 ;turn off led
G1 F6000 X44 Y220
M42 P6 S255 ;turn off led
M42 P5 S0 ;turn off led
M42 P4 S0 ;turn off led
G1 F6000 X37 Y215
M42 P6 S255 ;turn off led
M42 P5 S0 ;turn off led
M42 P4 S0 ;turn off led
G1 F6000 X31 Y208
M42 P6 S255 ;turn off led
M42 P5 S0 ;turn off led
M42 P4 S0 ;turn off led
G1 F6000 X26 Y201
M42 P6 S255 ;turn off led
M42 P5 S0 ;turn off led
M42 P4 S0 ;turn off led
G1 F6000 X21 Y193
M42 P6 S255 ;turn off led
M42 P5 S0 ;turn off led
M42 P4 S0 ;turn off led
G1 F6000 X17 Y185
M42 P6 S255 ;turn off led
M42 P5 S0 ;turn off led
M42 P4 S0 ;turn off led
G1 F6000 X14 Y177
M42 P6 S255 ;turn off led
M42 P5 S0 ;turn off led
M42 P4 S0 ;turn off led
G1 F6000 X11 Y168
M42 P6 S255 ;turn off led
M42 P5 S0 ;turn off led
M42 P4 S0 ;turn off led
G1 F6000 X10 Y159
M42 P6 S255 ;turn off led
M42 P5 S0 ;turn off led
M42 P4 S0 ;turn off led
G1 F6000 X10 Y150
M42 P6 S255 ;turn off led
M42 P5 S0 ;turn off led
M42 P4 S0 ;turn off led
G1 F6000 X10 Y141
M42 P6 S255 ;turn off led
M42 P5 S0 ;turn off led
M42 P4 S0 ;turn off led
G1 F6000 X11 Y132
M42 P6 S255 ;turn off led
M42 P5 S0 ;turn off led
M42 P4 S0 ;turn off led
G1 F6000 X13 Y124
M42 P6 S255 ;turn off led
M42 P5 S0 ;turn off led
M42 P4 S0 ;turn off led
G1 F6000 X16 Y115
M42 P6 S255 ;turn off led
M42 P5 S0 ;turn off led
M42 P4 S0 ;turn off led
G1 F6000 X20 Y107
M42 P6 S255 ;turn off led
M42 P5 S0 ;turn off led
M42 P4 S0 ;turn off led
G1 F6000 X25 Y99
M42 P6 S255 ;turn off led
M42 P5 S0 ;turn off led
M42 P4 S0 ;turn off led
G1 F6000 X30 Y92
M42 P6 S255 ;turn off led
M42 P5 S0 ;turn off led
M42 P4 S0 ;turn off led
G1 F6000 X36 Y85
M42 P6 S255 ;turn off led
M42 P5 S0 ;turn off led
M42 P4 S0 ;turn off led
G1 F6000 X43 Y79
M42 P6 S255 ;turn off led
M42 P5 S0 ;turn off led
M42 P4 S0 ;turn off led
G1 F6000 X50 Y74
M42 P6 S255 ;turn off led
M42 P5 S0 ;turn off led
M42 P4 S0 ;turn off led
G1 F6000 X58 Y70
M42 P6 S255 ;turn off led
M42 P5 S0 ;turn off led
M42 P4 S0 ;turn off led
G1 F6000 X66 Y66
M42 P6 S255 ;turn off led
M42 P5 S0 ;turn off led
M42 P4 S0 ;turn off led
G1 F6000 X75 Y63
M42 P6 S255 ;turn off led
M42 P5 S0 ;turn off led
M42 P4 S0 ;turn off led
G1 F6000 X83 Y61
M42 P6 S255 ;turn off led
M42 P5 S0 ;turn off led
M42 P4 S0 ;turn off led
G1 F6000 X92 Y60
M42 P6 S255 ;turn off led
M42 P5 S0 ;turn off led
M42 P4 S0 ;turn off led
G1 F6000 X101 Y60
M42 P6 S255 ;turn off led
M42 P5 S0 ;turn off led
M42 P4 S0 ;turn off led
G1 F6000 X110 Y60
M42 P6 S255 ;turn off led
M42 P5 S0 ;turn off led
M42 P4 S0 ;turn off led
G1 F6000 X119 Y62
M42 P6 S255 ;turn off led
M42 P5 S0 ;turn off led
M42 P4 S0 ;turn off led
G1 F6000 X128 Y64
M42 P6 S255 ;turn off led
M42 P5 S0 ;turn off led
M42 P4 S0 ;turn off led
G1 F6000 X136 Y67
M42 P6 S255 ;turn off led
M42 P5 S0 ;turn off led
M42 P4 S0 ;turn off led
G1 F6000 X144 Y71
M42 P6 S255 ;turn off led
M42 P5 S0 ;turn off led
M42 P4 S0 ;turn off led
G1 F6000 X152 Y76
M42 P6 S255 ;turn off led
M42 P5 S0 ;turn off led
M42 P4 S0 ;turn off led
G1 F6000 X159 Y82
M42 P6 S255 ;turn off led
M42 P5 S0 ;turn off led
M42 P4 S0 ;turn off led
G1 F6000 X165 Y88
M42 P6 S255 ;turn off led
M42 P5 S0 ;turn off led
M42 P4 S0 ;turn off led
G1 F6000 X171 Y95
M42 P6 S255 ;turn off led
M42 P5 S0 ;turn off led
M42 P4 S0 ;turn off led
G1 F6000 X176 Y102
M42 P6 S255 ;turn off led
M42 P5 S0 ;turn off led
M42 P4 S0 ;turn off led
G1 F6000 X181 Y110
M42 P6 S255 ;turn off led
M42 P5 S0 ;turn off led
M42 P4 S0 ;turn off led
G1 F6000 X184 Y119
M42 P6 S255 ;turn off led
M42 P5 S0 ;turn off led
M42 P4 S0 ;turn off led
G1 F6000 X187 Y127
M42 P6 S255 ;turn off led
M42 P5 S0 ;turn off led
M42 P4 S0 ;turn off led
G1 F6000 X188 Y136
M42 P6 S255 ;turn off led
M42 P5 S0 ;turn off led
M42 P4 S0 ;turn off led
G1 F6000 X189 Y145
M42 P6 S255 ;turn off led
M42 P5 S0 ;turn off led
M42 P4 S0 ;turn off led
G1 F6000 X189 Y154
M42 P6 S255 ;turn off led
M42 P5 S0 ;turn off led
M42 P4 S0 ;turn off led
G1 F6000 X188 Y163
M42 P6 S255 ;turn off led
M42 P5 S0 ;turn off led
M42 P4 S0 ;turn off led
G1 F6000 X187 Y172
M42 P6 S255 ;turn off led
M42 P5 S0 ;turn off led
M42 P4 S0 ;turn off led
G1 F6000 X184 Y180
M42 P6 S255 ;turn off led
M42 P5 S0 ;turn off led
M42 P4 S0 ;turn off led
G1 F6000 X181 Y189
M42 P6 S255 ;turn off led
M42 P5 S0 ;turn off led
M42 P4 S0 ;turn off led
G1 F6000 X176 Y197
M42 P6 S255 ;turn off led
M42 P5 S0 ;turn off led
M42 P4 S0 ;turn off led
G1 F6000 X171 Y204
M42 P6 S255 ;turn off led
M42 P5 S0 ;turn off led
M42 P4 S0 ;turn off led
G1 F6000 X165 Y211
M42 P6 S255 ;turn off led
M42 P5 S0 ;turn off led
M42 P4 S0 ;turn off led
G1 F6000 X159 Y217
M42 P6 S255 ;turn off led
M42 P5 S0 ;turn off led
M42 P4 S0 ;turn off led
G1 F6000 X152 Y223
M42 P6 S255 ;turn off led
M42 P5 S0 ;turn off led
M42 P4 S0 ;turn off led
G1 F6000 X144 Y228
M42 P6 S255 ;turn off led
M42 P5 S0 ;turn off led
M42 P4 S0 ;turn off led
G1 F6000 X136 Y232
M42 P6 S255 ;turn off led
M42 P5 S0 ;turn off led
M42 P4 S0 ;turn off led
G1 F6000 X128 Y235
M42 P6 S255 ;turn off led
M42 P5 S0 ;turn off led
M42 P4 S0 ;turn off led
G1 F6000 X119 Y237
M42 P6 S255 ;turn off led
M42 P5 S0 ;turn off led
M42 P4 S0 ;turn off led
G1 F6000 X110 Y239
M42 P6 S255 ;turn off led
M42 P5 S0 ;turn off led
M42 P4 S0 ;turn off led
G1 F6000 X101 Y239
M42 P6 S255 ;turn off led
M42 P5 S0 ;turn off led
M42 P4 S0 ;turn off led
G1 F6000 X92 Y239
M42 P6 S255 ;turn off led
M42 P5 S0 ;turn off led
M42 P4 S0 ;turn off led
G1 F6000 X83 Y238
M42 P6 S255 ;turn off led
M42 P5 S0 ;turn off led
M42 P4 S0 ;turn off led
G1 F6000 X75 Y236
M42 P6 S255 ;turn off led
M42 P5 S0 ;turn off led
M42 P4 S0 ;turn off led
G1 F6000 X66 Y233
M42 P6 S255 ;turn off led
M42 P5 S0 ;turn off led
M42 P4 S0 ;turn off led
G1 F6000 X58 Y229
M42 P6 S255 ;turn off led
M42 P5 S0 ;turn off led
M42 P4 S0 ;turn off led
G1 F6000 X50 Y225
M42 P6 S255 ;turn off led
M42 P5 S0 ;turn off led
M42 P4 S0 ;turn off led
G1 F6000 X43 Y220
M42 P6 S255 ;turn off led
M42 P5 S0 ;turn off led
M42 P4 S0 ;turn off led
G1 F6000 X36 Y214
M42 P6 S255 ;turn off led
M42 P5 S0 ;turn off led
M42 P4 S0 ;turn off led
G1 F6000 X30 Y207
M42 P6 S255 ;turn off led
M42 P5 S0 ;turn off led
M42 P4 S0 ;turn off led
G1 F6000 X25 Y200
M42 P6 S255 ;turn off led
M42 P5 S0 ;turn off led
M42 P4 S0 ;turn off led
G1 F6000 X20 Y192
M42 P6 S255 ;turn off led
M42 P5 S0 ;turn off led
M42 P4 S0 ;turn off led
G1 F6000 X16 Y184
M42 P6 S255 ;turn off led
M42 P5 S0 ;turn off led
M42 P4 S0 ;turn off led
G1 F6000 X13 Y175
M42 P6 S255 ;turn off led
M42 P5 S0 ;turn off led
M42 P4 S0 ;turn off led
G1 F6000 X11 Y167
M42 P6 S255 ;turn off led
M42 P5 S0 ;turn off led
M42 P4 S0 ;turn off led
G1 F6000 X10 Y158
M42 P6 S255 ;turn off led
M42 P5 S0 ;turn off led
M42 P4 S0 ;turn off led
G1 F6000 X10 Y149
M42 P6 S255 ;turn off led
M42 P5 S0 ;turn off led
M42 P4 S0 ;turn off led
G1 F6000 X10 Y140
M42 P6 S255 ;turn off led
M42 P5 S0 ;turn off led
M42 P4 S0 ;turn off led
G1 F6000 X11 Y131
M42 P6 S255 ;turn off led
M42 P5 S0 ;turn off led
M42 P4 S0 ;turn off led
G1 F6000 X14 Y122
M42 P6 S255 ;turn off led
M42 P5 S0 ;turn off led
M42 P4 S0 ;turn off led
G1 F6000 X17 Y114
M42 P6 S255 ;turn off led
M42 P5 S0 ;turn off led
M42 P4 S0 ;turn off led
G1 F6000 X21 Y106
M42 P6 S255 ;turn off led
M42 P5 S0 ;turn off led
M42 P4 S0 ;turn off led
G1 F6000 X26 Y98
M42 P6 S255 ;turn off led
M42 P5 S0 ;turn off led
M42 P4 S0 ;turn off led
G1 F6000 X31 Y91
M42 P6 S255 ;turn off led
M42 P5 S0 ;turn off led
M42 P4 S0 ;turn off led
G1 F6000 X37 Y84
M42 P6 S255 ;turn off led
M42 P5 S0 ;turn off led
M42 P4 S0 ;turn off led
G1 F6000 X44 Y79
M42 P6 S255 ;turn off led
M42 P5 S0 ;turn off led
M42 P4 S0 ;turn off led
G1 F6000 X52 Y73
M42 P6 S255 ;turn off led
M42 P5 S0 ;turn off led
M42 P4 S0 ;turn off led
G1 F6000 X59 Y69
M42 P6 S255 ;turn off led
M42 P5 S0 ;turn off led
M42 P4 S0 ;turn off led
G1 F6000 X68 Y65
M42 P6 S255 ;turn off led
M42 P5 S0 ;turn off led
M42 P4 S0 ;turn off led
G1 F6000 X76 Y63
M42 P6 S255 ;turn off led
M42 P5 S0 ;turn off led
M42 P4 S0 ;turn off led
G1 F6000 X85 Y61
M42 P6 S255 ;turn off led
M42 P5 S0 ;turn off led
M42 P4 S0 ;turn off led
G1 F6000 X94 Y60
M42 P6 S255 ;turn off led
M42 P5 S0 ;turn off led
M42 P4 S0 ;turn off led
G1 F6000 X103 Y60
M42 P6 S255 ;turn off led
M42 P5 S0 ;turn off led
M42 P4 S0 ;turn off led
G1 F6000 X112 Y60
M42 P6 S255 ;turn off led
M42 P5 S0 ;turn off led
M42 P4 S0 ;turn off led
G1 F6000 X121 Y62
M42 P6 S255 ;turn off led
M42 P5 S0 ;turn off led
M42 P4 S0 ;turn off led
G1 F6000 X129 Y65
M42 P6 S255 ;turn off led
M42 P5 S0 ;turn off led
M42 P4 S0 ;turn off led
G1 F6000 X138 Y68
M42 P6 S255 ;turn off led
M42 P5 S0 ;turn off led
M42 P4 S0 ;turn off led
G1 F6000 X146 Y72
M42 P6 S255 ;turn off led
M42 P5 S0 ;turn off led
M42 P4 S0 ;turn off led
G1 F6000 X153 Y77
M42 P6 S255 ;turn off led
M42 P5 S0 ;turn off led
M42 P4 S0 ;turn off led
G1 F6000 X160 Y83
M42 P6 S255 ;turn off led
M42 P5 S0 ;turn off led
M42 P4 S0 ;turn off led
G1 F6000 X166 Y89
M42 P6 S255 ;turn off led
M42 P5 S0 ;turn off led
M42 P4 S0 ;turn off led
G1 F6000 X172 Y96
M42 P6 S255 ;turn off led
M42 P5 S0 ;turn off led
M42 P4 S0 ;turn off led
G1 F6000 X177 Y104
M42 P6 S255 ;turn off led
M42 P5 S0 ;turn off led
M42 P4 S0 ;turn off led
G1 F6000 X181 Y112
M42 P6 S255 ;turn off led
M42 P5 S0 ;turn off led
M42 P4 S0 ;turn off led
G1 F6000 X185 Y120
M42 P6 S255 ;turn off led
M42 P5 S0 ;turn off led
M42 P4 S0 ;turn off led
G1 F6000 X187 Y129
M42 P6 S255 ;turn off led
M42 P5 S0 ;turn off led
M42 P4 S0 ;turn off led
G1 F6000 X189 Y138
M42 P6 S255 ;turn off led
M42 P5 S0 ;turn off led
M42 P4 S0 ;turn off led
G1 F6000 X189 Y147
M42 P6 S255 ;turn off led
M42 P5 S0 ;turn off led
M42 P4 S0 ;turn off led
G1 F6000 X189 Y156
M42 P6 S255 ;turn off led
M42 P5 S0 ;turn off led
M42 P4 S0 ;turn off led
G1 F6000 X188 Y164
M42 P6 S255 ;turn off led
M42 P5 S0 ;turn off led
M42 P4 S0 ;turn off led
G1 F6000 X186 Y173
M42 P6 S255 ;turn off led
M42 P5 S0 ;turn off led
M42 P4 S0 ;turn off led
G1 F6000 X183 Y182
M42 P6 S255 ;turn off led
M42 P5 S0 ;turn off led
M42 P4 S0 ;turn off led
G1 F6000 X180 Y190
M42 P6 S255 ;turn off led
M42 P5 S0 ;turn off led
M42 P4 S0 ;turn off led
G1 F6000 X175 Y198
M42 P6 S255 ;turn off led
M42 P5 S0 ;turn off led
M42 P4 S0 ;turn off led
G1 F6000 X170 Y205
M42 P6 S255 ;turn off led
M42 P5 S0 ;turn off led
M42 P4 S0 ;turn off led
G1 F6000 X164 Y212
M42 P6 S255 ;turn off led
M42 P5 S0 ;turn off led
M42 P4 S0 ;turn off led
G1 F6000 X158 Y218
M42 P6 S255 ;turn off led
M42 P5 S0 ;turn off led
M42 P4 S0 ;turn off led
G1 F6000 X151 Y224
M42 P6 S255 ;turn off led
M42 P5 S0 ;turn off led
M42 P4 S0 ;turn off led
G1 F6000 X143 Y228
M42 P6 S255 ;turn off led
M42 P5 S0 ;turn off led
M42 P4 S0 ;turn off led
G1 F6000 X135 Y232
M42 P6 S255 ;turn off led
M42 P5 S0 ;turn off led
M42 P4 S0 ;turn off led
G1 F6000 X126 Y235
M42 P6 S255 ;turn off led
M42 P5 S0 ;turn off led
M42 P4 S0 ;turn off led
G1 F6000 X118 Y238
M42 P6 S255 ;turn off led
M42 P5 S0 ;turn off led
M42 P4 S0 ;turn off led
G1 F6000 X109 Y239
M42 P6 S255 ;turn off led
M42 P5 S0 ;turn off led
M42 P4 S0 ;turn off led
G1 F6000 X100 Y239
M42 P6 S255 ;turn off led
M42 P5 S0 ;turn off led
M42 P4 S0 ;turn off led
G1 F6000 X91 Y239
M42 P6 S255 ;turn off led
M42 P5 S0 ;turn off led
M42 P4 S0 ;turn off led
G1 F6000 X82 Y238
M42 P6 S255 ;turn off led
M42 P5 S0 ;turn off led
M42 P4 S0 ;turn off led
G1 F6000 X73 Y236
M42 P6 S255 ;turn off led
M42 P5 S0 ;turn off led
M42 P4 S0 ;turn off led
G1 F6000 X65 Y233
M42 P6 S255 ;turn off led
M42 P5 S0 ;turn off led
M42 P4 S0 ;turn off led
G1 F6000 X57 Y229
M42 P6 S255 ;turn off led
M42 P5 S0 ;turn off led
M42 P4 S0 ;turn off led
G1 F6000 X49 Y224
M42 P6 S255 ;turn off led
M42 P5 S0 ;turn off led
M42 P4 S0 ;turn off led
G1 F6000 X42 Y219
M42 P6 S255 ;turn off led
M42 P5 S0 ;turn off led
M42 P4 S0 ;turn off led
G1 F6000 X35 Y212
M42 P6 S255 ;turn off led
M42 P5 S0 ;turn off led
M42 P4 S0 ;turn off led
G1 F6000 X29 Y206
M42 P6 S255 ;turn off led
M42 P5 S0 ;turn off led
M42 P4 S0 ;turn off led
G1 F6000 X24 Y198
M42 P6 S255 ;turn off led
M42 P5 S0 ;turn off led
M42 P4 S0 ;turn off led
G1 F6000 X19 Y191
M42 P6 S255 ;turn off led
M42 P5 S0 ;turn off led
M42 P4 S0 ;turn off led
G1 F6000 X16 Y182
M42 P6 S255 ;turn off led
M42 P5 S0 ;turn off led
M42 P4 S0 ;turn off led
G1 F6000 X13 Y174
M42 P6 S255 ;turn off led
M42 P5 S0 ;turn off led
M42 P4 S0 ;turn off led
G1 F6000 X11 Y165
M42 P6 S255 ;turn off led
M42 P5 S0 ;turn off led
M42 P4 S0 ;turn off led
G1 F6000 X10 Y156
M42 P6 S255 ;turn off led
M42 P5 S0 ;turn off led
M42 P4 S0 ;turn off led
G1 F6000 X10 Y147
M42 P6 S255 ;turn off led
M42 P5 S0 ;turn off led
M42 P4 S0 ;turn off led
G1 F6000 X10 Y138
M42 P6 S255 ;turn off led
M42 P5 S0 ;turn off led
M42 P4 S0 ;turn off led
G1 F6000 X12 Y129
M42 P6 S255 ;turn off led
M42 P5 S0 ;turn off led
M42 P4 S0 ;turn off led
G1 F6000 X14 Y121
M42 P6 S255 ;turn off led
M42 P5 S0 ;turn off led
M42 P4 S0 ;turn off led
G1 F6000 X18 Y112
M42 P6 S255 ;turn off led
M42 P5 S0 ;turn off led
M42 P4 S0 ;turn off led
G1 F6000 X22 Y104
M42 P6 S255 ;turn off led
M42 P5 S0 ;turn off led
M42 P4 S0 ;turn off led
G1 F6000 X27 Y97
M42 P6 S255 ;turn off led
M42 P5 S0 ;turn off led
M42 P4 S0 ;turn off led
G1 F6000 X32 Y90
M42 P6 S255 ;turn off led
M42 P5 S0 ;turn off led
M42 P4 S0 ;turn off led
G1 F6000 X38 Y83
M42 P6 S255 ;turn off led
M42 P5 S0 ;turn off led
M42 P4 S0 ;turn off led
G1 F6000 X45 Y78
M42 P6 S255 ;turn off led
M42 P5 S0 ;turn off led
M42 P4 S0 ;turn off led
G1 F6000 X53 Y73
M42 P6 S255 ;turn off led
M42 P5 S0 ;turn off led
M42 P4 S0 ;turn off led
G1 F6000 X61 Y68
M42 P6 S255 ;turn off led
M42 P5 S0 ;turn off led
M42 P4 S0 ;turn off led
G1 F6000 X69 Y65
M42 P6 S255 ;turn off led
M42 P5 S0 ;turn off led
M42 P4 S0 ;turn off led
G1 F6000 X78 Y62
M42 P6 S255 ;turn off led
M42 P5 S0 ;turn off led
M42 P4 S0 ;turn off led
G1 F6000 X86 Y60
M42 P6 S255 ;turn off led
M42 P5 S0 ;turn off led
M42 P4 S0 ;turn off led
G1 F6000 X95 Y60
M42 P6 S255 ;turn off led
M42 P5 S0 ;turn off led
M42 P4 S0 ;turn off led
G1 F6000 X104 Y60
M42 P6 S255 ;turn off led
M42 P5 S0 ;turn off led
M42 P4 S0 ;turn off led
G1 F6000 X113 Y61
M42 P6 S255 ;turn off led
M42 P5 S0 ;turn off led
M42 P4 S0 ;turn off led
G1 F6000 X122 Y62
M42 P6 S255 ;turn off led
M42 P5 S0 ;turn off led
M42 P4 S0 ;turn off led
G1 F6000 X131 Y65
M42 P6 S255 ;turn off led
M42 P5 S0 ;turn off led
M42 P4 S0 ;turn off led
G1 F6000 X139 Y69
M42 P6 S255 ;turn off led
M42 P5 S0 ;turn off led
M42 P4 S0 ;turn off led
G1 F6000 X147 Y73
M42 P6 S255 ;turn off led
M42 P5 S0 ;turn off led
M42 P4 S0 ;turn off led
G1 F6000 X154 Y78
M42 P6 S255 ;turn off led
M42 P5 S0 ;turn off led
M42 P4 S0 ;turn off led
G1 F6000 X161 Y84
M42 P6 S255 ;turn off led
M42 P5 S0 ;turn off led
M42 P4 S0 ;turn off led
G1 F6000 X167 Y90
M42 P6 S255 ;turn off led
M42 P5 S0 ;turn off led
M42 P4 S0 ;turn off led
G1 F6000 X173 Y98
M42 P6 S255 ;turn off led
M42 P5 S0 ;turn off led
M42 P4 S0 ;turn off led
G1 F6000 X178 Y105
M42 P6 S255 ;turn off led
M42 P5 S0 ;turn off led
M42 P4 S0 ;turn off led
G1 F6000 X182 Y113
M42 P6 S255 ;turn off led
M42 P5 S0 ;turn off led
M42 P4 S0 ;turn off led
G1 F6000 X185 Y122
M42 P6 S255 ;turn off led
M42 P5 S0 ;turn off led
M42 P4 S0 ;turn off led
G1 F6000 X187 Y130
M42 P6 S255 ;turn off led
M42 P5 S0 ;turn off led
M42 P4 S0 ;turn off led
G1 F6000 X189 Y139
M42 P6 S255 ;turn off led
M42 P5 S0 ;turn off led
M42 P4 S0 ;turn off led
G1 F6000 X189 Y148
